X:1
T:Title
%%score { ( 1 3 4 ) | ( 2 5 6 ) }
L:1/8
Q:1/4=100
M:4/4
K:Db
V:1 treble nm="Grand Piano"
V:3 treble 
V:4 treble 
V:2 bass 
V:5 bass 
V:6 bass 
V:1
 D2 F2 [FA]2 [Fd]2 | [_Fc]2 [FB]2 [=FA]4 | B2 A2 [Gc]2 [Fd]2 | [EA]2 [EG]2 F4 | B2 B2 A2 [GA]2 | %5
w: C.~Austin~Miles * * *|||||
 [Fd]2 [Fc]2 [FB]2 [FA]2 | [Ae]4 [=Ge]4 |[M:7/8] A-A-A- A3 z |[M:1/8] [FA] | %9
w: ||||
[M:4/4] [FA]4 [DF]2 z [FA] | [Fd]4 .[FA]2 z2 | d>d d>d c2 B2 | [FA]4 z2 F>F | %13
w: ||||
 E>F =G>A [GB]2 [Gd]>[Gd] | c2 A2 z2 A>A | d6 z2 | [FA]2 [DF]>[EG] [FA]2 A>A | e6 z2 | %18
w: |||||
[M:35/32] A2 B>A[Fd]-[Fd]/4-(3:2:9[Fd]-[Fd]/4-[Fd]/16 z3/8 z/16 [FA]3/8-[FA]/16 z3/8 z/16 (3:2:4[FA]3/2-[FA]/4[FA]3/4-[FA]/8 | %19
w: |
[M:11/16] (3:2:6[Fd]2- [Fd]3/4 [FA]2- [FA]3/4 z2 z3/4 |[M:5/16] z/ z/ z [FA]/ | %21
w: ||
[M:19/16] (3:2:10[GB]2- [GB]3/8 z2 z3/8 z4 z3/4 [=Gd]2- [Gd]3/8 z2 z3/8 | %22
w: |
[M:4/4] (3:2:2A3/2A3/2 z2 (3:2:2e4 c2 | %23
w: |
[M:11/8] (5:4:12[DFd]2- [DFd-]3/4[Gd]-[Gd-]3/8d-d3/8-[Ed]-[Ed-]3/8 d4- d/8 [Fd]2- [Fd]3/4 | %24
w: |
[M:9/8] d6 [Fd]3 |] %25
w: |
V:2
 [D,F,]2 [D,A,D]2 [D,D]2 [D,A,]2 | [D,=G,]2 [D,G,]2 [D,A,]4 | [G,D]2 [F,A,D]2 [E,A,]2 [D,A,]2 | %3
 [C,A,]2 [A,,A,]2 [D,A,D]4 | [G,D]2 [G,D]2 [F,A,D]2 [C,A,]2 | [B,,B,]2 [C,=A,]2 [D,B,]2 [_F,_C]2 | %6
 [E,C]4 [E,D]4 |[M:7/8] [A,C]-[A,C]-[A,C]- [A,C]3 z |[M:1/8] [D,D] | %9
[M:4/4] [D,D]4 .[D,A,]2 z [D,D] | [D,A,]4 .[D,D]2 z2 | %11
 [G,B,G]>[G,B,G] [G,B,G]>[G,B,G] [G,CG]2 [G,DG]2 | [D,D]4 z2 [D,A,D]>[D,A,D] | %13
 [E,=G,D]>[E,A,D] [E,B,D]>[E,CE] [E,D]2 [E,B,]>[E,E] | [A,EA]2 [A,C]2 z4 | %15
 z2[K:bass] [D,A,]>[D,A,] [D,A,]2 [D,D]>[D,D] | [D,D]2 [D,A,]>[D,A,] [D,D]2 z2 | %17
 z2[K:treble] [A,C]>[A,C] [A,C]2 [A,EG]>[A,DG] | %18
[M:35/32] [A,CG]2 [A,DG]>[A,CG][K:bass][D,D]-[D,D]/4-(3:2:9[D,D]-[D,D]/4-[D,D]/16 z3/8 z/16 [D,D]3/8-[D,D]/16 z3/8 z/16 (3:2:4[D,D]3/2-[D,D]/4[D,D]3/4-[D,D]/8 | %19
[M:11/16] (3:2:6[D,A,]2- [D,A,]3/4 [D,D]2- [D,D]3/4 z2 z3/4 |[M:5/16] z/ A,/-A,-A,/4 z/4 | %21
[M:19/16] z/ z/ z/ z/ z/ z/ z/ z/ z/ z/ z/ z/ z/ z E/-E-E/4 z/4 |[M:4/4] z8[K:treble] | %23
[M:11/8][K:bass] z z z z/ B,/-B,/4 z/4 z/ z z z z z2 |[M:9/8] [G,B,]6- [G,B,]/4 z/4 z/ z z |] %25
V:3
 x8 | x8 | x8 | x8 | x8 | x8 | x8 |[M:7/8] x7 |[M:1/8] x |[M:4/4] x8 | x8 | x8 | x8 | x8 | x8 | %15
 z2 F>F F2 [Ac]>[GB] | x8 | z2 G>G G2 c>B |[M:35/32] x35/4 |[M:11/16] x11/2 | %20
[M:5/16] z/ [EG]/-[EG]-[EG]/4 z/4 | %21
[M:19/16] z/ z/ z [=Ge]/-[Ge]/-[Ge]/-[Ge]/-[Ge]/-[Ge]/-[Ge]/-[Ge]-[Ge]/4 z/4 z/ c3/2-[G-B-c]/4[GB]/4- | %22
[M:4/4] [GB]3/4 z/4 z z2 z4 |[M:11/8] z z z2 F3/4 z/4 D-D- D2- D/4 z/4 z/ z/ [Fd]/- | %24
[M:9/8] [Fd]3/4 z/4 z z z3 z3 |] %25
V:4
 x8 | x8 | x8 | x8 | x8 | x8 | x8 |[M:7/8] x7 |[M:1/8] x |[M:4/4] x8 | x8 | x8 | x8 | x8 | x8 | %15
 x8 | x8 | x8 |[M:35/32] x35/4 |[M:11/16] x11/2 |[M:5/16] [DF]3/4 z/4 z/ z | %21
[M:19/16] z/ z/ z/ z/ z/ z/ z/ z/ z/ z/ z/ z/ z/ z =G3/2 z/ |[M:4/4] x8 | %23
[M:11/8] z z z z/ G/-G/4 z/4 z/ z z z z z2 |[M:9/8] G6- G/4 z/4 z/ z z |] %25
V:5
 x8 | x8 | x8 | x8 | x8 | x8 | x8 |[M:7/8] x7 |[M:1/8] x |[M:4/4] x8 | x8 | x8 | x8 | x8 | x8 | %15
 x2[K:bass] x6 | x8 | x2[K:treble] x6 |[M:35/32] x4[K:bass] x19/4 |[M:11/16] x11/2 | %20
[M:5/16] [D,A,]<D,[D,D]/ | %21
[M:19/16] (3:2:10[G,E]2- [G,E]3/8 z2 z3/8 z4 z3/4 [E,E]2- [E,E]3/8 z2 z3/8 | %22
[M:4/4] (3:2:2[A,C]3/2[A,C]3/2 z2[K:treble] (3:2:2A,4 [A,EG]2 | %23
[M:11/8][K:bass] z z z2 A,3/4 z/4 F,-F,- F,2- F,/4 z/4 z/ z/ [D,A,]/- | %24
[M:9/8] [D,A,]3/4 z/4 z z z3 z3 |] %25
V:6
 x8 | x8 | x8 | x8 | x8 | x8 | x8 |[M:7/8] x7 |[M:1/8] x |[M:4/4] x8 | x8 | x8 | x8 | x8 | x8 | %15
 x2[K:bass] x6 | x8 | x2[K:treble] x6 |[M:35/32] x4[K:bass] x19/4 |[M:11/16] x11/2 |[M:5/16] x5/2 | %21
[M:19/16] z/ z/ z [E,E]/-[E,E]/-[E,E]/-[E,E]/-[E,E]/-[E,E]/-[E,E]/-[E,E]-[E,E]/4 z/4 z/ E,>[E,D]- | %22
[M:4/4] [E,D]3/4 z/4 z z2[K:treble] [CG]3- [CG]/4 z/4 z/ | %23
[M:11/8][K:bass] (5:4:12D,2- D,3/4-[D,B,]-[D,-B,]3/8D,-D,3/8-[D,G,]-[D,-G,]3/8 D,4- D,/8 [D,A,]2- [D,A,]3/4 | %24
[M:9/8] z3 z3 [D,A,]3 |] %25

